_posts/2019-09-01-alex-hillman/tile.svg

<svg width="240" height="240" fill="none" xmlns="http://www.w3.org/2000/svg"><path d="M60 82.5002C60 103.199 42.9994 120 22 120c-20.99945 0-38-16.801-38-37.4998C-16 61.8019 1.00055 45 22 45c20.9994 0 38 16.8019 38 37.5002zM-15.5 32C-3.07359 32 7 22.1503 7 10 7-2.15026-3.07359-12-15.5-12-27.9264-12-38-2.15026-38 10c0 12.1503 10.0736 22 22.5 22z" fill="#FEFFD2" stroke="#1F1D1B" stroke-width="3"/><path d="M182.362 89.1833c2.001-.5659 4.143.2076 5.309 1.9178l11.783 17.2719.003.005 11.724 17.311c1.161 1.714 1.081 3.974-.197 5.604l-12.913 16.457-.003.004-12.968 16.415c-1.284 1.625-3.475 2.248-5.431 1.545l-19.763-7.101-.005-.001-19.739-7.167c-1.954-.709-3.228-2.585-3.159-4.649l.698-20.846v-.005l.769-20.843c.076-2.064 1.479-3.846 3.479-4.419l20.194-5.7826.005-.0015 20.214-5.7156zM103.742 83.8729c1.835-.9677 4.085-.6565 5.578.7717l7.494 7.1688.004.0038 7.47 7.1937c1.488 1.4331 1.88 3.6571.971 5.5131l-4.563 9.318-.002.005-4.594 9.303c-.915 1.854-2.923 2.917-4.977 2.636l-10.315-1.41-.005-.001-10.3097-1.444c-2.0538-.288-3.6861-1.854-4.047-3.884l-1.812-10.19-.0009-.005-1.7777-10.1957c-.3541-2.0311.6446-4.0622 2.4764-5.036l9.1944-4.8877.0048-.0026 9.2107-4.8571z" fill="#DBD2FF" stroke="#1F1D1B" stroke-width="3"/><path d="M187.019 25.4752c-1.416-3.8923.591-8.1962 4.483-9.6129l49.023-17.84285c3.892-1.4167 8.196.59021 9.613 4.48254l17.843 49.02291c1.416 3.8924-.59 8.1962-4.483 9.6129l-49.023 17.8429c-3.892 1.4167-8.196-.5902-9.613-4.4826l-17.843-49.0229z" fill="#D2F4FF" stroke="#1F1D1B" stroke-width="3"/><rect x="240" y="87" width="58" height="58" rx="7.5" fill="#D2F4FF" stroke="#1F1D1B" stroke-width="3"/><path d="M133.894-2.8082c5.528-4.61186 14.043-1.55166 15.308 5.50142L159.85 62.0964c1.261 7.0364-5.643 12.7731-12.437 10.3316L90.2021 51.8671c-6.793-2.4414-8.3873-11.232-2.8717-15.8331L133.894-2.8082zM84.7743-30.4219c3.9725-3.3205 10.091-1.1172 10.9995 3.9611l5.1182 28.6104c.906 5.06629-4.055 9.1966-8.9361 7.43845L64.4565-.314816C59.5754-2.0723 58.4298-8.40166 62.3931-11.7143l22.3812-18.7076z" fill="#D2FFD4" stroke="#1F1D1B" stroke-width="3"/></svg>

<svg width="240" height="240" viewBox="0 0 240 240" fill="none" xmlns="http://www.w3.org/2000/svg">
<path d="M60 82.5002C60 103.199 42.9994 120 22 120C1.00055 120 -16 103.199 -16 82.5002C-16 61.8019 1.00055 45 22 45C42.9994 45 60 61.8019 60 82.5002Z" fill="#FEFFD2" stroke="#1F1D1B" stroke-width="3"/>
<path d="M-15.5 32C-3.07359 32 7 22.1503 7 10C7 -2.15026 -3.07359 -12 -15.5 -12C-27.9264 -12 -38 -2.15026 -38 10C-38 22.1503 -27.9264 32 -15.5 32Z" fill="#FEFFD2" stroke="#1F1D1B" stroke-width="3"/>
<path d="M182.362 89.1833C184.363 88.6174 186.505 89.3909 187.671 91.1011L199.454 108.373L199.457 108.378L211.181 125.689C212.342 127.403 212.262 129.663 210.984 131.293L198.071 147.75L198.068 147.754L185.1 164.169C183.816 165.794 181.625 166.417 179.669 165.714L159.906 158.613L159.901 158.612L140.162 151.445C138.208 150.736 136.934 148.86 137.003 146.796L137.701 125.95L137.701 125.945L138.47 105.102C138.546 103.038 139.949 101.256 141.949 100.683L162.143 94.9004L162.148 94.8989L182.362 89.1833Z" fill="#DBD2FF" stroke="#1F1D1B" stroke-width="3"/>
<path d="M103.742 83.8729C105.577 82.9052 107.827 83.2164 109.32 84.6446L116.814 91.8134L116.818 91.8172L124.288 99.0109C125.776 100.444 126.168 102.668 125.259 104.524L120.696 113.842L120.694 113.847L116.1 123.15C115.185 125.004 113.177 126.067 111.123 125.786L100.808 124.376L100.803 124.375L90.4933 122.931C88.4395 122.643 86.8072 121.077 86.4463 119.047L84.6343 108.857L84.6334 108.852L82.8557 98.6563C82.5016 96.6252 83.5003 94.5941 85.3321 93.6203L94.5265 88.7326L94.5313 88.73L103.742 83.8729Z" fill="#DBD2FF" stroke="#1F1D1B" stroke-width="3"/>
<path d="M187.019 25.4752C185.603 21.5829 187.61 17.279 191.502 15.8623L240.525 -1.98055C244.417 -3.39725 248.721 -1.39034 250.138 2.50199L267.981 51.5249C269.397 55.4173 267.391 59.7211 263.498 61.1378L214.475 78.9807C210.583 80.3974 206.279 78.3905 204.862 74.4981L187.019 25.4752Z" fill="#D2F4FF" stroke="#1F1D1B" stroke-width="3"/>
<rect x="240" y="87" width="58" height="58" rx="7.5" fill="#D2F4FF" stroke="#1F1D1B" stroke-width="3"/>
<path d="M133.894 -2.8082C139.422 -7.42006 147.937 -4.35986 149.202 2.69322L159.85 62.0964C161.111 69.1328 154.207 74.8695 147.413 72.428L90.2021 51.8671C83.4091 49.4257 81.8148 40.6351 87.3304 36.034L133.894 -2.8082Z" fill="#D2FFD4" stroke="#1F1D1B" stroke-width="3"/>
<path d="M84.7743 -30.4219C88.7468 -33.7424 94.8653 -31.5391 95.7738 -26.4608L100.892 2.1496C101.798 7.21589 96.837 11.3462 91.9559 9.58805L64.4565 -0.314816C59.5754 -2.0723 58.4298 -8.40166 62.3931 -11.7143L84.7743 -30.4219Z" fill="#D2FFD4" stroke="#1F1D1B" stroke-width="3"/>
</svg>
